svgs/regular/comment-dots.svg

<svg xmlns="http://www.w3.org/2000/svg" viewBox="0 0 512 512"><!-- Font Awesome Pro 6.0.0-alpha2 by @fontawesome - https://fontawesome.com License - https://fontawesome.com/license (Commercial License) --><path d="M144.049 208C126.301 208 112.053 222.25 112.053 240S126.301 272 144.049 272S176.045 257.75 176.045 240S161.797 208 144.049 208ZM256.034 208C238.286 208 224.038 222.25 224.038 240S238.286 272 256.034 272C273.782 272 288.03 257.75 288.03 240S273.782 208 256.034 208ZM368.019 208C350.271 208 336.023 222.25 336.023 240S350.271 272 368.019 272C385.767 272 400.015 257.75 400.015 240S385.767 208 368.019 208ZM256.034 32C114.678 32 0.068 125.125 0.068 240C0.068 287.625 19.94 331.25 52.936 366.25C38.063 405.75 7.067 439.125 6.567 439.5C-0.057 446.5 -1.807 456.75 1.943 465.5C5.817 474.25 14.441 480 24.065 480C85.557 480 134.05 454.25 163.171 433.75C192.043 442.75 223.288 448 256.034 448C397.39 448 512 354.875 512 240S397.39 32 256.034 32ZM256.034 400C229.288 400 202.916 395.875 177.669 387.875L154.923 380.75L135.425 394.5C121.177 404.625 101.555 415.875 77.933 423.5C85.307 411.375 92.306 397.75 97.805 383.25L108.429 355.25L87.806 333.375C69.809 314.125 48.062 282.25 48.062 240C48.062 151.75 141.299 80 256.034 80S464.006 151.75 464.006 240S370.769 400 256.034 400Z"/></svg>

<svg xmlns="http://www.w3.org/2000/svg" viewBox="0 0 512 512"><!-- Font Awesome Pro 5.15.1 by @fontawesome - https://fontawesome.com License - https://fontawesome.com/license (Commercial License) --><path d="M144 208c-17.7 0-32 14.3-32 32s14.3 32 32 32 32-14.3 32-32-14.3-32-32-32zm112 0c-17.7 0-32 14.3-32 32s14.3 32 32 32 32-14.3 32-32-14.3-32-32-32zm112 0c-17.7 0-32 14.3-32 32s14.3 32 32 32 32-14.3 32-32-14.3-32-32-32zM256 32C114.6 32 0 125.1 0 240c0 47.6 19.9 91.2 52.9 126.3C38 405.7 7 439.1 6.5 439.5c-6.6 7-8.4 17.2-4.6 26S14.4 480 24 480c61.5 0 110-25.7 139.1-46.3C192 442.8 223.2 448 256 448c141.4 0 256-93.1 256-208S397.4 32 256 32zm0 368c-26.7 0-53.1-4.1-78.4-12.1l-22.7-7.2-19.5 13.8c-14.3 10.1-33.9 21.4-57.5 29 7.3-12.1 14.4-25.7 19.9-40.2l10.6-28.1-20.6-21.8C69.7 314.1 48 282.2 48 240c0-88.2 93.3-160 208-160s208 71.8 208 160-93.3 160-208 160z"/></svg>
